X:1
T:Title
%%score 1 2
L:1/8
Q:1/4=85
M:6/8
K:Ab
V:1 treble nm="Grand Piano, Soprano"
V:2 bass nm="Choir Pad, He Threw Out the Life-Line"
V:1
 [CE]/[CA]/[Ec][Fd] [Ec][DB][CA] | [DB][Ec][CA] [DF] [CA]2 | [EG]/[DF]/[CE][CA] [CA][=DA]>[DB] | %3
w: By~J.~E.~French * * * * * *|||
 [=Dc] [EB]2- [EB]2- [EB]/ z/ | [CE]/[CA]/[Ec][Fd] [Ec][DB][CA] | [DB][Ec][CA] [DF] [CA]2 | %6
w: |||
 [EB][Ec][Ec]- [Ec]/[CA]/[DB][DB]- | [DB]/[DG]/ [CA]2- [CA]2- [CA]/ z/ | %8
w: ||
 [_GA][Fd][Fd]- [Fd]/[Fd]/[Fd][FA]- | [FA]/[=EB]/ [_Ec]2- [Ec]2- [Ec]/ z/ | %10
w: ||
 [Ec][EB][EB]- [EB]/[EB]/[=DB][DB]- | [DB]/[=Dc]/ [EB]2- [EB]2- [EB]/ z/ | EE[=DF] [_DG] [CA]2 | %13
w: |||
 AA[GB] [_Gc] [Fd]2 | [Fd][Ec][Ec]- [Ec]/[CA]/[DB][DB]- | [DB]/[DG]/ [CA]2- [CA]3- | [CA]3 z3 |] %17
w: ||||
V:2
 [A,,A,]/[A,,A,]/[A,,A,][A,,A,] [A,,A,][E,G,][F,A,] | [E,G,][A,,A,][A,,A,] [D,A,] [A,,A,]2 | %2
 [A,,A,]/[A,,A,]/[A,,A,][A,,A,] [A,,A,][B,,A,]>[B,,G,] | [B,,F,] [E,G,]2- [E,G,]2- [E,G,]/ z/ | %4
 [A,,A,]/[A,,A,]/[A,,A,][A,,A,] [A,,A,][E,G,][F,A,] | [E,G,][A,,A,][A,,A,] [D,A,] [A,,A,]2 | %6
 [E,G,]A,A,- A,/A,/[E,G,][E,G,]- | [E,G,]/[E,B,]/ [A,,A,]2- [A,,A,]2- [A,,A,]/ z/ | %8
 [C,A,][D,A,][D,A,]- [D,A,]/[D,A,]/[D,A,][D,A,]- | [D,A,]/[D,A,]/ [A,,A,]2 [A,,A,] [A,,A,]2 | %10
 [A,,A,][B,,G,][B,,G,]- [B,,G,]/[B,,G,]/[B,,A,][B,,A,]- | [B,,A,]/[B,,A,]/ [E,G,]2 [E,G,] [E,G,]2 | %12
 [E,G,][E,G,][E,A,] [E,B,] [A,,A,]2 | [A,C][A,C][A,D] [A,E] [D,D]2 | %14
 [D,A,][E,A,][E,A,]- [E,A,]/[E,A,]/[E,G,][E,G,]- | [E,G,]/[E,B,]/ [A,,A,]2- [A,,A,]3- | %16
 [A,,A,]3 z3 |] %17

